X: 10
T:Andy de Jarlis
C:Andy de Jarlis
M:6/8
K:D %Transposed from E
|:"D"DFA DFA|DFA B2A| DFA DFA|"C"=CEG A2G|!
"D"DFA DFA|DFA B2g| fed "A"ABc|1"D"ded d3:|2"D"ded d2g||
|:"D"f2f def|"G"g2g B3| "A"e2ee2d|cec A2g|!
"D"f2f def|"G"g2g B3| "A"e2e ABc|1"D"ded dfg:|2"D"ded d3|]
